!!!!SEGMENT: pl-wn--mus-iii-80-120_wieniawski-henryk--2de-maurka-kuyawiak.krn
!!!cenid: 18xx:3804
!!!COM: Wieniawski, Henryk
!!!COM-rismID: pe137176
!!!CDT: 1835/07/10-1880/03/31
!!!CNT:
!!!OTL: 2de Maurka/Kuyawiak
!!!PDT:
!!!AGN:
!!!SMS-siglum: PL-Wn
!!!SMS-shelfmark: Mus.III.80.120
!!!SMS-shelfwork: W
!!!SMS-variant:
!!!SMS-altvar:
!!!NIFC-rismSourceID:
!!!NIFC-rismChildID:
!!!NIFC-islandoraID: none
!!!URL-pdf-islandora:
!!!URL-scan: https://polona2.pl/item/2de-mazurka-kuyawiak-danse-nationale-polonaise-pour-violon-avec-accompagnement-de,Mzk2NDY2NzA/2 @EN{Scan on Polona} @PL{Skany w portalu Polona}
!!!IIIF: https://polona2.pl/iiif/item/Mzk2NDY2NzA/manifest.json
!!!ONB-nifc:
!!!AIN: 1 piano 1 violn
!!!key: a
**kern	**kern	**dynam	**kern	**dynam
!	!	!	!LO:MO:mod=*null:null	!
*	*	*	*scale:80%	*
*part2	*part2	*part2	*part1	*part1
*staff3	*staff2	*	*staff1	*
*I"PIANO.	*I"PIANO.	*	*I"Violino.	*
*mI"Pianoforte	*mI"Pianoforte	*	*mI"Violino	*
*Ipiano	*Ipiano	*	*Ivioln	*
*ICklav	*ICklav	*	*ICstr	*
*IGacmp	*IGacmp	*	*IGsolo	*
*clefF4	*clefG2	*	*clefG2	*
*k[]	*k[]	*	*k[]	*
*a:	*a:	*	*a:	*
*M3/4	*M3/4	*	*M3/4	*
=1	=1	=1	=1	=1
*xywh-#4:387,1055,2391,470	*xywh-#4:387,1055,2391,470	*	*	*
!	!	!	!LO:TX:a:B:t=KUJAWIAK.:mod=	!
!	!	!	!LO:TX:a:t=A Mademoiselle Constance Korzuchowska.:mod=	!
!	!	!	!LO:TX:a:t=2me Mazurka.:mod=	!
2.r	8.e^/L	p	2.r	.
.	16e/Jk	.	.	.
.	4e/	.	.	.
.	4e/	.	.	.
=2	=2	=2	=2	=2
2.r	4e/	.	2.r	.
.	4e/	.	.	.
.	4e/	.	.	.
=3	=3	=3	=3	=3
.	(8qf/	.	.	.
2.r	8.e^/L)	.	2.r	.
.	16e/Jk	.	.	.
.	4e/	.	.	.
.	4e/	.	.	.
=4	=4	=4	=4	=4
.	(8qf/	.	.	.
2.r	4e/)	.	2.r	.
.	4e/	.	.	.
.	4e/	.	.	.
=5	=5	=5	=5	=5
.	(8qe/	.	.	.
*ped	*	*	*	*
4E/ 4AA/	(8.ee^\L)	.	2.r	.
.	16dd#X\K	.	.	.
4d#X\ 4c\ 4A\ 4F#X\ 4E\	8a\	.	.	.
.	8cc\	.	.	.
4d#\ 4c\ 4A\ 4F#\ 4E\	8bm\	.	.	.
*Xped	*	*	*	*
.	8a\J	.	.	.
=6	=6	=6	=6	=6
!	!	!	!LO:TX:a:t=HENRI WIENIAWSKY.:mod=	!
*ped	*	*	*	*
4E/ 4AA/	8b/L	.	2.r;	.
.	8f#X/	.	.	.
4e\ 4dn\ 4B\ 4E\	8a/	.	.	.
.	8g#X/J	.	.	.
4e\ 4d\ 4G#X\ 4E;\	4e;/)	.	.	.
*Xped	*	*	*	*
!!LO:LB:g=original
=7	=7	=7	=7	=7
*xywh-#4:352,1697,2437,470	*xywh-#4:352,1697,2437,470	*	*xywh-#4:404,1539,2377,179	*
.	(8qe/	.	.	.
*ped	*	*	*	*
4E/ 4AA/	(8ee^\L)	.	2.r	.
.	8dd#X\	.	.	.
4d#X\ 4c\ 4A\ 4F#X\ 4E\	8a\	.	.	.
.	8cc\	.	.	.
4d#\ 4c\ 4A\ 4F#\ 4E\	8bm\	.	.	.
*Xped	*	*	*	*
.	16r	.	.	.
.	16a\Jk	.	.	.
=8	=8	=8	=8	=8
*ped	*	*	*	*
4EE/	8b/L	.	2.r;	.
.	8f#X/	.	.	.
4B\ 4E\	8a/	.	.	.
.	8g#X/J	.	.	.
4B\ 4G#X\ 4E;\	4e;/)	.	.	.
*Xped	*	*	*	*
=9	=9	=9	=9	=9
!	!	!	!	!LO:MO:mod=.
.	.	.	(8qe/	p
!	!	!	!	!LO:MO:null:mod=p
2.E/ 2.AA/	4r	.	8ee^\L)	.
.	.	.	8dd#X\	.
.	4f#X/ 4d#X/ 4c/ 4A/	.	8a\	.
.	.	.	8cc\	.
.	4f#/ 4d#/ 4c/ 4A/	.	8.b\sSsS	.
.	.	.	16a\Jk	.
=10	=10	=10	=10	=10
2.E/ 2.AA;</	4r	.	(<8b/L	.
.	.	.	8f#X/	.
.	4g#X/ 4e/ 4dn/ 4B/ 4G#X/	.	8a/)	.
.	.	.	8g#X'/J	.
.	4g#/ 4e/ 4d/ 4B/ 4G#;/	.	4e;/	.
=11	=11	=11	=11	=11
.	.	.	(8qe/	.
2.E/ 2.AA/	4r	.	8ee^\L)	.
.	.	.	8dd#X\	.
.	4f#X/ 4d#X/ 4c/ 4A/	.	8a\	.
.	.	.	8cc\	.
.	4f#/ 4d#/ 4c/ 4A/	.	8.b\sSsS	.
.	.	.	16a\Jk	.
!!LO:LB:g=original
=12	=12	=12	=12	=12
*xywh-#4:369,2382,2412,498	*xywh-#4:369,2382,2412,498	*	*xywh-#4:345,2154,2444,217	*
4EE/ 4EEE/	4r	.	(8b/L	.
.	.	.	8f#X/	.
2B\ 2E;\	2ee/ 2g#X/ 2e;/	.	8a/)	.
.	.	.	8g#X'/J	.
!	!	!	!LO:SIC:s=4e;	!
.	.	.	4en;/	.
.	.	.	8qe-X/	.
=13!|:	=13!|:	=13!|:	=13!|:	=13!|:
!!!OMD:
!!!OMD-mod: Tempo di Mazurka
!	!LO:TX:a:B:t=Tempo di Mazurka.:mod=	!	!	!
4GG/ 4GGG/	4r	ff	8.aa/L 8.b/ 8.d/ 8.G/	ff
.	.	.	16gg/Jk	.
!LO:SIC:s=4rGG	!LO:SIC:s=4g 4B< 4G< 4F<	!	!	!
4r	4g/ 4B/ 4G/ 4F/	.	4ff/	.
!LO:SIC:s=4rGG	!LO:SIC:s=4g 4B< 4G< 4F<	!	!	!
4r	4g/ 4B/ 4G/ 4F/	.	4dd/ 4d/ 4G^>/	.
=14	=14	=14	=14	=14
4CC/ 4CCC/	4r	.	8.cc/L 8.e/ 8.G/	.
.	.	.	16dd/Jk	.
!LO:SIC:s=4rGG	!LO:SIC:s=4e 4c 4G< 4E<	!	!	!
4r	4e/ 4c/ 4G/ 4E/	.	4ee/	.
!LO:SIC:s=4rGG	!LO:SIC:s=4e 4c 4G< 4E<	!	!	!
4r	4e/ 4c/ 4G/ 4E/	.	4cc/ 4e/ 4G^>/	.
=15	=15	=15	=15	=15
4GG/ 4GGG/	4r	.	8.a/L 8.f/ 8.G/	.
.	.	.	16dd/Jk	.
!LO:SIC:s=4rGG	!LO:SIC:s=4g 4B< 4G< 4F<	!	!	!
4r	4g/ 4B/ 4G/ 4F/	.	4a/	.
!LO:SIC:s=4rGG	!LO:SIC:s=4g 4B< 4G< 4F<	!	!	!
4r	4g/ 4B/ 4G/ 4F/	.	4b/ 4f/ 4G^>/	.
=16	=16	=16	=16	=16
4CC/ 4CCC/	4r	.	8.cc/L 8.e/ 8.G/	.
.	.	.	16ee/Jk	.
!LO:SIC:s=4rGG	!LO:SIC:s=4e 4c 4G< 4E<	!	!	!
4r	4e/ 4c/ 4G/ 4E/	.	4aa/	.
!LO:SIC:s=4rGG	!LO:SIC:s=4e 4c 4G< 4E<	!	!	!
4r	4e/ 4c/ 4G/ 4E/	.	4gg^>/	.
!!LO:PB:g=original
=17	=17	=17	=17	=17
*xywh-#4:348,3084,2440,526	*xywh-#4:348,3084,2440,526	*	*xywh-#4:369,2881,2412,221	*
4GG/ 4GGG/	4r	.	8.aa/L 8.b/ 8.d/ 8.G/	.
.	.	.	16gg/Jk	.
!LO:SIC:s=4rGG	!LO:SIC:s=4g 4B< 4G< 4F<	!	!	!
4r	4g/ 4B/ 4G/ 4F/	.	4ff/	.
!LO:SIC:s=4rGG	!LO:SIC:s=4g 4B< 4G< 4F<	!	!	!
4r	4g/ 4B/ 4G/ 4F/	.	4dd/ 4d/ 4G^>/	.
=18	=18	=18	=18	=18
4CC/ 4CCC/	4r	.	8.cc/L 8.e/ 8.G/	.
.	.	.	16dd/Jk	.
!LO:SIC:s=4rGG	!LO:SIC:s=4e 4c 4G< 4E<	!	!	!
4r	4e/ 4c/ 4G/ 4E/	.	4ee/	.
!LO:SIC:s=4rGG	!LO:SIC:s=4e 4c 4G< 4E<	!	!	!
4r	4e/ 4c/ 4G/ 4E/	.	4cc/ 4e/ 4G^>/	.
=19	=19	=19	=19	=19
4GG/ 4GGG/	4r	.	8.a/L 8.f/ 8.G/	.
.	.	.	16dd/Jk	.
!LO:SIC:s=4rGG	!LO:SIC:s=4g 4B< 4G< 4F<	!	!	!
4r	4g/ 4B/ 4G/ 4F/	.	4a/	.
!LO:SIC:s=4rGG	!LO:SIC:s=4g 4B< 4G< 4F<	!	!	!
4r	4g/ 4B/ 4G/ 4F/	.	4b/ 4f/ 4G^>/	.
=20	=20	=20	=20	=20
!	!LO:SIC:s=4e 4c 4G< 4E<	!	!	!
4CC/ 4CCC/	4e/ 4c/ 4G/ 4E/	.	4cc/ 4e/ 4G/	.
!	!	!	!	!LO:DY:rj
4c\ 4G\ 4E\ 4C\	4ccc\ 4gg\ 4ee\ 4cc\	fff	4ccc/ 4cc/ 4e/ 4G/	fff
4r	4r	.	4r	.
=21:|!|:	=21:|!|:	=21:|!|:	=21:|!|:	=21:|!|:
!	!	!	!LO:TX:a:i:t=grazioso	!
4EE/ 4EEE/	4r	p	(4e/	p <
4r	4b/ 4g#X/ 4e/ 4d/	.	8ff\)	[
.	.	.	8r	.
4r	4ee/ 4g#/ 4e/ 4d/	.	8ee\L	.
.	.	.	8dd\J	.
=22	=22	=22	=22	=22
4AAA/	4r	.	8.cc\LSSs	>
.	.	.	16b\Jk	.
4e\ 4c\ 4A\ 4E\	4ee\ 4cc\ 4a\	.	4a/	]
4e\ 4c\ 4A\ 4E\	4aa\ 4ee\ 4cc\ 4a\	.	8r	.
.	.	.	8a/	.
!!LO:PB:g=original
=23	=23	=23	=23	=23
*xywh-#5:163,604,2565,505	*xywh-#5:163,604,2565,505	*	*xywh-#5:202,420,2524,188	*
4DD/	4r	.	(8.dd\L	<
!	!	!	!	!LO:MO:mod=.
.	.	.	16ff\Jk)	[
!	!	!	!	!LO:MO:mod=[
.	.	.	(8qff/	f >
!	!	!	!	!LO:MO:null:mod=f >
4f\ 4d\ 4A\ 4F\	4ff\ 4dd\ 4a\	.	(4.aa;\)	.
4f\ 4d\ 4A\ 4F\	4aa\ 4ff\ 4dd\ 4a\	.	.	.
.	.	.	8ff\)	]
=24	=24	=24	=24	=24
4AAA/	4r	.	8.ee\LSsS	.
.	.	.	16dd#X\Jk	.
4e\ 4c\ 4A\ 4E\	4ee\ 4cc\ 4a\	.	(4ee\	.
4e\ 4c\ 4A\ 4E\	4aa\ 4ee\ 4cc\ 4a\	.	4cc\)	.
=25	=25	=25	=25	=25
4EE/ 4EEE/	4r	.	(4e/	p <
4r	4b/ 4g#X/ 4e/ 4d/	.	8ff\)	[
.	.	.	8r	.
4r	4ee/ 4g#/ 4e/ 4d/	.	8ee\L	.
.	.	.	8dd\J	.
=26	=26	=26	=26	=26
4AAA/	4r	.	8.cc\LSSs	>
.	.	.	16b\Jk	.
4e\ 4c\ 4A\ 4E\	4ee\ 4cc\ 4a\	.	4a/	]
4e\ 4c\ 4A\ 4E\	4aa\ 4ee\ 4cc\ 4a\	.	8r	.
.	.	.	8a#X/	.
=27	=27	=27	=27	=27
4BBB/	4r	.	(8a#X\L	.
.	.	.	8b\)	.
.	.	.	(16qqb/LL	.
.	.	.	16qqdd#X/JJ	.
4f#X\ 4B\ 4A\ 4F#X\ 4D#X\	4dd#X\ 4b\ 4a\	.	8cc#X\)	.
.	.	.	8b\	.
4f#\ 4B\ 4A\ 4F#\ 4D#\	4bb\ 4dd#\ 4b\ 4a\	.	8cc#\	.
.	.	.	8dd#X\J	.
!!LO:LB:g=original
=28	=28	=28	=28	=28
*xywh-#5:198,1382,2475,578	*xywh-#5:198,1382,2475,578	*	*xywh-#5:226,1155,2457,244	*
.	.	.	(32qqdd#X/LLL	<
.	.	.	32qqee/	.
.	.	.	32qqffn/JJJ	.
!	!	!	!LO:TR:acc=n:problem:kasownik pod trylem	!
4e\ 4B\ 4G#X\ 4E\	4bb\ 4ee\ 4g#X\	.	(<2.eet\)	[ >
4r	4r	.	.	.
4r	4r	.	.	.
.	.	.	16qqdd#X/LL	.
.	.	.	16qqee/JJ)	]
=29:|!	=29:|!	=29:|!	=29:|!	=29:|!
!	!	!	!LO:TX:a:i:t=chaleureusement	!
4CC/	4r	mf	8aa'\	f
.	.	.	8r	.
2e\ 2c\ 2A\ 2E\	(2aa\ 2ee\ 2cc\ 2a\	.	2aa^\	ff
=30	=30	=30	=30	=30
!	!	!	!LO:SIC:s=8ff'	!
4DD/	8ff'\)	.	8ffn'\	f
.	8r	.	8r	.
2d\ 2B\ 2A\ 2F\	2ff\ 2dd\ 2b\ 2a\ 2f\	.	2ff^\	ff
=31	=31	=31	=31	=31
4EE/ 4EEE/	4r	.	8b\	.
.	.	.	8r	.
4r	4g#X/ 4e/ 4d/	.	(4.ee^\	.
4r	4g#/ 4e/ 4d/	.	.	.
.	.	.	8dd\)	.
=32	=32	=32	=32	=32
.	.	.	(16qqcc/LL	.
.	.	.	16qqdd/JJ	.
4AA/ 4AAA/	4r	.	8.cc\L)	.
.	.	.	16b\Jk	.
4r	4a/ 4e/ 4c/	.	4cc\	.
4r	4a/ 4e/ 4c/	.	4a/	.
!!LO:LB:g=original
=33	=33	=33	=33	=33
*	*^	*	*	*
*xywh-#5:219,2212,2510,554	*xywh-#5:219,2212,2510,554	*xywh-#5:219,2212,2510,554	*	*xywh-#5:219,1995,2475,223	*
.	(8qe/	.	.	.	.
4CC/	2ee/)	4r	p	8aa'\	f
.	.	.	.	8r	.
.	.	.	.	(8qee/	.
4c\ 4A\ 4E\	.	4a\	.	2aa^\)	pp
4r	4r	4ryy	.	.	.
=34	=34	=34	=34	=34	=34
.	(8qf/	.	.	.	.
4DD/	2ff/)	4r	.	8ff'\	f
.	.	.	.	8r	.
.	.	.	.	(8qdd/	.
4d\ 4B\ 4A\ 4F\	.	4b\ 4a\	.	2ff^\)	pp
4r	4r	4rcyy	.	.	.
*	*v	*v	*	*	*
=35	=35	=35	=35	=35
4EE/ 4EEE/	4g#X/ 4d/	.	8b\	.
.	.	.	8r	.
!!LO:TX:a:i:t= :mod=rall.
!	!LO:TX:b:i:t=rallent.:mod=	!	!LO:TX:b:i:t=rallent.:mod=	!
4r	4.cc/ 4.e/	.	(4.ee\	.
4G#X/ 4EE/	.	.	.	.
.	8b/ 8d/	.	8g#X/)	.
=36	=36	=36	=36	=36
4A\ 4E\ 4AA\	2a/ 2c/	.	2a/	.
4AAA/	.	.	.	.
4r	4r	.	4r	.
=37	=37	=37	=37	=37
!!LO:TX:a:i:t= :mod=poco più lento
!	!LO:TX:b:i:t=poco più lento:mod=	!	!LO:TX:a:i:t=poco più lento:mod=	!LO:DY:rj
4CC/	4r	mf	8aa'\	mf
.	.	.	8r	.
2e\ 2c\ 2A\ 2E\	(2aa\ 2ee\ 2cc\ 2a\	.	2aa^\	.
=38	=38	=38	=38	=38
4DD/	8ff'\)	.	8ff'\	.
.	8r	.	8r	.
2d\ 2B\ 2A\ 2F\	2ff\ 2dd\ 2b\ 2a\ 2f\	.	2ff^\	.
!!LO:LB:g=original
=39	=39	=39	=39	=39
*xywh-#5:233,2989,2430,610	*xywh-#5:233,2989,2430,610	*	*xywh-#5:244,2801,2430,240	*
4EE/ 4EEE/	4r	.	8b\	.
.	.	.	8r	.
4r	4g#X/ 4e/ 4d/	.	(4.ee^\	.
4r	4g#/ 4e/ 4d/	.	.	.
.	.	.	8dd\)	.
=40	=40	=40	=40	=40
4AA/ 4AAA/	4r	.	8.cc\LSSs	.
.	.	.	16b\Jk	.
4r	4a/ 4e/ 4c/	.	4cc\	.
4r	4a/ 4e/ 4c/	.	4a/	.
=41	=41	=41	=41	=41
*	*^	*	*	*
*	*	*xywh-#5:233,2989,2430,610	*	*	*
.	(8qe/	.	.	.	.
4CC/	2ee/)	4r	ppp	8aa'\	ppp
.	.	.	.	8r	.
.	.	.	.	(8qee/	.
4c\ 4A\ 4E\	.	4a\	.	2aa^\)	.
4r	4r	4rcyy	.	.	.
=42	=42	=42	=42	=42	=42
.	(8qf/	.	.	.	.
4DD/	4.gg/)	4r	.	8ff'\	.
.	.	.	.	8r	.
.	.	.	.	(8qdd/	.
4d\ 4B\ 4A\ 4F\	.	4b\ 4a\	.	2ff\)	.
.	8ff/L	.	.	.	.
4r	8dd/	4r	.	.	.
.	8b/J	.	.	.	.
*	*v	*v	*	*	*
=43	=43	=43	=43	=43
4EE/ 4EEE/	4g#X/ 4d/	.	8b\	.
.	.	.	8r	.
!!LO:TX:a:i:t= :mod=rall.
!	!LO:TX:b:i:t=rallent.:mod=	!	!LO:TX:b:i:t=rallent.:mod=	!
4r	4.cc/ 4.e/	.	(4.ee\	.
4G#X/ 4EE/	.	.	.	.
.	8b/ 8d/	.	8g#X/)	.
=44	=44	=44	=44	=44
4A\ 4E\ 4AA\	2.a/ 2.c/	.	2a/	<
4AAA/	.	.	.	.
4r	.	.	4r	[[
!!LO:PB:g=original
=45||	=45||	=45||	=45||	=45||
*xywh-#6:373,650,2437,535	*xywh-#6:373,650,2437,535	*	*xywh-#6:403,367,2444,298	*
!!LO:TX:a:i:t= :mod=a tempo
!	!LO:TX:b:i:t=a tempo:mod=	!	!LO:TX:a:i:t=a tempo:mod=	!
4GG/ 4GGG/	4r	ff	8.aa/L 8.b/ 8.d/ 8.G/	ff
.	.	.	16gg/Jk	.
!LO:SIC:s=4rGG	!LO:SIC:s=4g 4B< 4G< 4F<	!	!	!
4r	4g/ 4B/ 4G/ 4F/	.	4ff/	.
!LO:SIC:s=4rGG	!LO:SIC:s=4g 4B< 4G< 4F<	!	!	!
4r	4g/ 4B/ 4G/ 4F/	.	4dd/ 4f/ 4G^>/	.
=46	=46	=46	=46	=46
4CC/ 4CCC/	4r	.	8.cc/L 8.e/ 8.G/	.
.	.	.	16dd/Jk	.
!LO:SIC:s=4rGG	!LO:SIC:s=4e 4c 4G< 4E<	!	!	!
4r	4e/ 4c/ 4G/ 4E/	.	4ee/	.
!LO:SIC:s=4rGG	!LO:SIC:s=4e 4c 4G< 4E<	!	!	!
4r	4e/ 4c/ 4G/ 4E/	.	4cc/ 4e/ 4G^>/	.
=47	=47	=47	=47	=47
4GG/ 4GGG/	4r	.	8.a/L 8.f/ 8.G/	.
.	.	.	16dd/Jk	.
!LO:SIC:s=4rGG	!LO:SIC:s=4g 4B< 4G< 4F<	!	!	!
4r	4g/ 4B/ 4G/ 4F/	.	4a/	.
!LO:SIC:s=4rGG	!LO:SIC:s=4g 4B< 4G< 4F<	!	!	!
4r	4g/ 4B/ 4G/ 4F/	.	4b/ 4f/ 4G^>/	.
=48	=48	=48	=48	=48
4CC/ 4CCC/	4r	.	8.cc/L 8.e/ 8.G/	.
.	.	.	16ee/Jk	.
!LO:SIC:s=4rGG	!LO:SIC:s=4e 4c 4G< 4E<	!	!	!
4r	4e/ 4c/ 4G/ 4E/	.	4aa/	.
!LO:SIC:s=4rGG	!LO:SIC:s=4e 4c 4G< 4E<	!	!	!
4r	4e/ 4c/ 4G/ 4E/	.	4gg^>/	.
=49	=49	=49	=49	=49
4GG/ 4GGG/	4r	.	8.aa/L 8.b/ 8.d/ 8.G/	.
.	.	.	16gg/Jk	.
!LO:SIC:s=4rGG	!LO:SIC:s=4g 4B< 4G< 4F<	!	!	!
4r	4g/ 4B/ 4G/ 4F/	.	4ff/	.
!LO:SIC:s=4rGG	!LO:SIC:s=4g 4B< 4G< 4F<	!	!	!
4r	4g/ 4B/ 4G/ 4F/	.	4dd/ 4f/ 4G^>/	.
!!LO:LB:g=original
=50	=50	=50	=50	=50
*xywh-#6:369,1401,2463,599	*xywh-#6:369,1401,2463,599	*	*xywh-#6:357,1156,2482,271	*
4CC/ 4CCC/	4r	.	8.cc/L 8.e/ 8.G/	.
.	.	.	16dd/Jk	.
!LO:SIC:s=4rGG	!LO:SIC:s=4e 4c 4G< 4E<	!	!	!
4r	4e/ 4c/ 4G/ 4E/	.	4ee/	.
!LO:SIC:s=4rGG	!LO:SIC:s=4e 4c 4G< 4E<	!	!	!
4r	4e/ 4c/ 4G/ 4E/	.	4cc/ 4e/ 4G^>/	.
=51	=51	=51	=51	=51
4GG/ 4GGG/	4r	.	8.a/L 8.f/ 8.G/	.
.	.	.	16dd/Jk	.
!LO:SIC:s=4rGG	!LO:SIC:s=4g 4B< 4G< 4F<	!	!	!
4r	4g/ 4B/ 4G/ 4F/	.	4a/	.
!LO:SIC:s=4rGG	!LO:SIC:s=4g 4B< 4G< 4F<	!	!	!
4r	4g/ 4B/ 4G/ 4F/	.	4b/ 4f/ 4G^>/	.
=52	=52	=52	=52	=52
!	!LO:SIC:s=4e 4c 4G< 4E<	!	!	!
4CC/ 4CCC/	4e/ 4c/ 4G/ 4E/	.	4cc/ 4e/ 4G/	.
4c\ 4G\ 4E\ 4C\	4ccc\ 4gg\ 4ee\ 4cc\	fff	4ccc/ 4cc/ 4e/ 4G/	fff
4r	4r	.	4r	.
=53	=53	=53	=53	=53
!	!	!	!LO:MO:mod=!LO&colon;TX&colon;a&colon;t=pizz.	!
!	!	!	!LO:TX:b:t=pizz.	!LO:DY:rj
4GG/ 4GGG/	4r	f	8.aa/L 8.b/ 8.d/ 8.G/+<	fff
!	!	!	!LO:MO:mod=!LO&colon;TX&colon;a&colon;t=arco	!
!	!	!	!LO:TX:b:t=arco	!
.	.	.	16gg~/Jk	.
4f\ 4d\ 4B\ 4G\	4gg\ 4ff\ 4dd\ 4b\ 4g\	.	4ff~/	.
4f\ 4d\ 4B\ 4G\	8aa\L 8a\	.	4dd/ 4f/ 4G+</	.
.	8bb\J 8b\	.	.	.
=54	=54	=54	=54	=54
*	*^	*	*	*
*	*	*xywh-#6:369,1401,2463,599	*	*	*
!	!	!	!	!LO:TX:a:i:t= :mod=simile	!
4C/ 4CC/	2ccc/ 2cc/	4r	.	8.cc/L 8.e/ 8.G/+<	.
.	.	.	.	16dd~/Jk	.
4e\ 4c\ 4G\	.	4gg\ 4ee\	.	4ee~/	.
4e\ 4c\ 4G\	8ddd/L 8dd/	4r	.	4cc/ 4e/ 4G/+<	.
.	8eee/J 8ee/	.	.	.	.
!!LO:LB:g=original
=55	=55	=55	=55	=55	=55
*xywh-#6:354,2220,2482,592	*xywh-#6:354,2220,2482,592	*xywh-#6:354,2220,2482,592	*	*xywh-#6:354,1986,2516,237	*
4GG/ 4GGG/	2fff/ 2ff/	4r	.	8.a/L 8.f/ 8.G/+<	.
.	.	.	.	16dd~/Jk	.
4f\ 4d\ 4B\ 4G\	.	4bb\ 4gg\	.	4a~/	.
4f\ 4d\ 4B\ 4G\	4bb/ 4gg/ 4ff/ 4dd/	4r	.	4b/ 4f/ 4G/+<	.
=56	=56	=56	=56	=56	=56
4C/ 4CC/	2ccc/ 2cc/	4r	.	8.cc/L 8.e/ 8.G/+<	.
.	.	.	.	16ee~/Jk	.
4e\ 4c\ 4G\	.	4gg\ 4ee\	.	4aa~/	.
4e\ 4c\ 4G\	[4gg/ [4g/	4r	.	4gg/ 4cc/ 4e/ 4G/+<	.
*	*v	*v	*	*	*
=57	=57	=57	=57	=57
4GG/ 4GGG/	4gg\] 4g\]	.	8.aa/L 8.b/ 8.d/ 8.G/+<	.
.	.	.	16gg~/Jk	.
4f\ 4d\ 4B\ 4G\	4gg\ 4ff\ 4dd\ 4b\ 4g\	.	4ff~/	.
4f\ 4d\ 4B\ 4G\	8aa\L 8a\	.	4dd/ 4f/ 4G/+<	.
.	8bb\J 8b\	.	.	.
=58	=58	=58	=58	=58
*	*^	*	*	*
*	*	*xywh-#6:354,2220,2482,592	*	*	*
4C/ 4CC/	2ccc/ 2cc/	4r	.	8.cc/L 8.e/ 8.G/+<	.
.	.	.	.	16dd~/Jk	.
4e\ 4c\ 4G\	.	4gg\ 4ee\	.	4ee~/	.
4e\ 4c\ 4G\	8ddd/L 8dd/	4r	.	4cc/ 4e/ 4G/+<	.
.	8eee/J 8ee/	.	.	.	.
=59	=59	=59	=59	=59	=59
4GG/ 4GGG/	2fff/ 2ff/	4r	.	8.a/L 8.f/ 8.G/+<	.
.	.	.	.	16dd~/Jk	.
4f\ 4d\ 4B\ 4G\	.	4bb\ 4gg\	.	4a~/	.
4f\ 4d\ 4B\ 4G\	4bb/ 4gg/ 4ff/ 4dd/	4r	.	4b/ 4f/ 4G/+<	.
*	*v	*v	*	*	*
!!LO:LB:g=original
=60	=60	=60	=60	=60
*xywh-#6:350,3034,2452,509	*xywh-#6:350,3034,2452,509	*	*xywh-#6:354,2785,2501,252	*
4c\ 4G\ 4E\ 4C\	4ccc\ 4gg\ 4ee\ 4cc\	.	4cc/ 4e/ 4G/+<	.
*	*8va	*	*	*
4C/ 4GG/ 4EE/ 4CC/	4cccc\ 4ggg\ 4eee\ 4ccc\	.	4ccc/ 4cc/ 4e/ 4G/	.
4r	4r	.	4r	.
*	*X8va	*	*	*
=61!|:	=61!|:	=61!|:	=61!|:	=61!|:
.	(32qqdd#X/LLL	p	.	.
.	32qqee/	.	.	.
!	!	!	!LO:TX:a:i:t=grazioso	!
.	32qqff/JJJ	.	.	.
4EE/	2.eett\)	.	(4e/	p
4e\ 4d\ 4G#X\ 4E\	.	.	8ff\)	.
.	.	.	8r	.
4e\ 4d\ 4G#\ 4E\	.	.	8ee\L	.
.	.	.	8dd\J	.
.	(16qqdd#X/LL	.	.	.
.	16qqee/JJ)	.	.	.
=62	=62	=62	=62	=62
4AAA/	8aa\	.	8.cc\LSSs	.
.	8r	.	.	.
.	.	.	16b\Jk	.
4e\ 4c\ 4A\ 4E\	4ee\ 4cc\ 4a\	.	4a/	.
4e\ 4c\ 4A\ 4E\	4aa\ 4ee\ 4cc\ 4a\	.	8r	.
.	.	.	(8a/	.
=63	=63	=63	=63	=63
4DD/	4r	.	8.dd\L	<
.	.	.	16ff\Jk)	.
4f\ 4d\ 4A\ 4F\	4ff\ 4dd\ 4a\	.	(4.aa;\	[
4f\ 4d\ 4A\ 4F\	4aa\ 4ff\ 4dd\ 4a\	.	.	.
.	.	.	8ff\)	.
=64	=64	=64	=64	=64
!	!	!	!LO:TX:t=P:problem:kasownik nad obiegnikiem	!
4AAA/	4r	.	8.ee\LSXS	.
.	.	.	16dd#X\Jk	.
4e\ 4c\ 4A\ 4E\	4ee\ 4cc\ 4a\	.	(4ee\	.
4e\ 4c\ 4A\ 4E\	4aa\ 4ee\ 4cc\ 4a\	.	4cc\)	.
!!LO:PB:g=original
=65	=65	=65	=65	=65
*xywh-#7:183,669,2472,512	*xywh-#7:183,669,2472,512	*	*xywh-#7:221,435,2434,233	*
4EE/ 4EEE/	4r	.	(4e/	.
4B\ 4E\	4g#X/ 4e/ 4d/	.	8ff\)	.
.	.	.	8r	.
4B\ 4E\	4ee/ 4g#/ 4e/ 4d/	.	8ee\L	.
.	.	.	8dd\J	.
=66	=66	=66	=66	=66
4AAA/	4r	.	8.cc\LSSs	.
.	.	.	16b\Jk	.
4e\ 4c\ 4A\ 4E\	4ee\ 4cc\ 4a\	.	4a/	.
4e\ 4c\ 4A\ 4E\	4aa\ 4ee\ 4cc\ 4a\	.	8r	.
.	.	.	8a#X/	.
=67	=67	=67	=67	=67
4BBB/	4r	.	(8a#X\L	.
.	.	.	8b\)	.
.	.	.	(16qqb/LL	.
.	.	.	16qqdd#X/JJ	.
4f#X\ 4B\ 4A\ 4F#X\ 4D#X\	4dd#X\ 4b\ 4a\	.	8cc#X\)	.
.	.	.	8b\	.
4f#\ 4B\ 4A\ 4F#\ 4D#\	4bb\ 4dd#\ 4b\ 4a\	.	8cc#\	.
.	.	.	8dd#\J	.
=68	=68	=68	=68	=68
.	.	.	(32qqdd#X/LLL	<
.	.	.	32qqee/	.
.	.	.	32qqffn/JJJ	.
!	!	!	!LO:TR:acc=n:problem:kasownik pod trylem	!
4e\ 4B\ 4G#X\ 4E\	4bb\ 4ee\ 4g#X\	.	(<2.eett\)	[ >
4r	4r	.	.	.
4r	4r	.	.	.
.	.	.	16qqdd#X/LL	.
.	.	.	16qqee/JJ)	]
=69:|!	=69:|!	=69:|!	=69:|!	=69:|!
4CC/	4r	mf	8aa'\	f
.	.	.	8r	.
2e\ 2c\ 2A\ 2E\	(2aa\ 2ee\ 2cc\ 2a\	.	2aa^\	ff
!!LO:LB:g=original
=70	=70	=70	=70	=70
*xywh-#7:174,1409,2501,543	*xywh-#7:174,1409,2501,543	*	*xywh-#7:199,1175,2472,237	*
4DD/	8ff'\)	.	8ff'\	f
.	8r	.	8r	.
2d\ 2B\ 2A\ 2F\	2ff\ 2dd\ 2b\ 2a\ 2f\	.	2ff^\	ff
=71	=71	=71	=71	=71
4EE/ 4EEE/	4r	.	4b\	.
4r	4g#X/ 4e/ 4d/	.	(4.ee^\	.
4r	4g#/ 4e/ 4d/	.	.	.
.	.	.	8dd\)	.
=72	=72	=72	=72	=72
4AA/ 4AAA/	4r	.	8.cc\LSSs	.
.	.	.	16b\Jk	.
4r	4a/ 4e/ 4c/	.	4cc\	.
4r	4a/ 4e/ 4c/	.	4a/	.
=73	=73	=73	=73	=73
.	(8qe/	.	.	.
*	*^	*	*	*
*	*	*xywh-#7:174,1409,2501,543	*	*	*
4CC/	2ee/)	4r	.	8aa\	f
.	.	.	.	8r	.
.	.	.	.	(8qee/	.
4e\ 4c\ 4A\ 4E\	.	4a\	.	2aa\)	pp
*	*v	*v	*	*	*
4r	4r	.	.	.
=74	=74	=74	=74	=74
.	(8qf/	.	.	.
*	*^	*	*	*
*	*	*xywh-#7:174,1409,2501,543	*	*	*
4DD/	2ff/)	4r	.	8ff\	f
.	.	.	.	8r	.
.	.	.	.	(8qdd/	.
4f\ 4d\ 4B\ 4A\ 4F\	.	4b\ 4a\	.	2ff\)	pp
*	*v	*v	*	*	*
4r	4r	.	.	.
=75	=75	=75	=75	=75
4EE/ 4EEE/	4g#X/ 4d/	.	4b\	.
!!LO:TX:a:i:t= :mod=rall.
!	!LO:TX:b:i:t=rallent.:mod=	!	!LO:TX:b:i:t=rallent.:mod=	!
4r	4.cc/ 4.e/	.	(4.ee\	.
4G#X/ 4EE/	.	.	.	.
.	8b/ 8d/	.	8g#X/)	.
!!LO:LB:g=original
=76	=76	=76	=76	=76
*xywh-#7:218,2212,2491,572	*xywh-#7:218,2212,2491,572	*	*xywh-#7:209,1971,2554,256	*
4A\ 4E\ 4AA\	2a/ 2c/	.	2a/	.
4AAA/	.	.	.	.
4r	4r	.	4r	.
=77	=77	=77	=77	=77
!!LO:TX:a:i:t= :mod=poco più lento
!	!LO:TX:b:i:t=poco più lento:mod=	!	!LO:TX:a:i:t=poco più lento:mod=	!
!	!	!	!LO:N:n=2:vis=2	!
4CC/	4r	p	8dddddyy\ 8rddd\ 8raaoy\	f
.	.	.	8r	.
!	!	!	!LO:N:n=2:vis=2	!
2e\ 2c\ 2A\ 2E\	(2aa\ 2ee\ 2cc\ 2a\	.	4dddddyy\ 4rddd\ 4raaoy^\	p
.	.	.	4r	.
=78	=78	=78	=78	=78
!	!	!	!LO:N:n=2:vis=2	!
4DD/	8ff'\)	.	8ffff\oyy 8rbb-X\ 8rffn\	f
.	8r	.	8r	.
!	!	!	!LO:N:n=2:vis=2	!
2d\ 2B-X\ 2F\ 2D\	2ff\ 2b-X\ 2f\	.	4ffff\oyy 4rbb-\ 4rff^\	p
.	.	.	4r	.
=79	=79	=79	=79	=79
!	!	!	!LO:N:n=2:vis=2	!
4EE/ 4EEE/	4r	.	4bbb\oyy 4ree\ 4rbn\	.
!	!	!	!LO:N:n=2:vis=2	!
4r	4ee/ 4g#X/ 4e/ 4d/	.	4.eeee\oyy 4.raa\ 4.ree\	.
4r	4ee/ 4g#/ 4e/ 4d/	.	.	.
!	!	!	!LO:N:n=2:vis=2	!
.	.	.	8dddd\oyy 8rgg\ 8rdd\	.
=80	=80	=80	=80	=80
!	!	!	!LO:N:n=2:vis=2	!
.	.	.	(16qqcccc/oyy 16rqqff\LL 16rqqcc\	.
!	!	!	!LO:N:n=2:vis=2	!
.	.	.	16qqdddd/oyy 16rqqgg\JJ 16rqqdd\	.
!	!	!	!LO:N:n=2:vis=2	!
4AA/ 4AAA/	4r	.	8.cccc\oyy 8.rff\L 8.rcc\)	.
!	!	!	!LO:N:n=2:vis=2	!
.	.	.	16bbb\oyy 16ree\Jk 16rb\	.
!	!	!	!LO:N:n=2:vis=2	!
4r	4cc/ 4a/ 4e/ 4c/	.	4cccc\oyy 4rff\ 4rcc\	.
!	!	!	!LO:N:n=2:vis=2	!
4r	4cc/ 4a/ 4e/ 4c/	.	4aaa\oyy 4rdd\ 4ra\	.
!!LO:LB:g=original
=81	=81	=81	=81	=81
*	*^	*	*	*
*xywh-#7:193,3040,2494,588	*xywh-#7:193,3040,2494,588	*xywh-#7:193,3040,2494,588	*	*xywh-#7:199,2743,2507,275	*
!	!	!	!	!LO:TX:b:i:t=adlibitum:mod=ad libitum	!
.	(8qe/	.	.	.	.
!	!	!	!	!LO:N:n=2:vis=2	!
4CC/	2ee/)	4r	.	8aaaa\oyy 8rddd\ 8raa\	.
.	.	.	.	8r	.
!	!	!	!	!LO:N:n=2:vis=2	!
4e\ 4c\ 4A\ 4E\	.	4a\	.	4aaaa\oyy 4rddd\ 4raa^\	.
4r	4r	4rcyy	.	4r	.
=82	=82	=82	=82	=82	=82
.	(8qf/	.	.	.	.
!	!	!	!	!LO:N:n=2:vis=2	!
4DD/	2ff/)	4r	.	8ffff\oyy 8rbb-X\ 8rffn\	.
.	.	.	.	8r	.
!	!	!	!	!LO:N:n=2:vis=2	!
4d\ 4B\ 4A\ 4F\ 4D\	.	4b\ 4a\	.	4ffff\oyy 4rbb-\ 4rff^\	.
4r	4r	4rcyy	.	4r	.
*	*v	*v	*	*	*
=83	=83	=83	=83	=83
!	!	!LO:MO:mod=!LO&colon;HP&colo	!	!
!	!	!null	!	!
!	!	!LO:MO:null:mod=<	!LO:N:n=2:vis=2	!
2EE/ 2EEE/	2ee/ 2g#X/ 2d/	.	16bbb\oyy 16ree\LL 16rbn^\	<
!	!	!	!LO:N:n=2:vis=2	!
.	.	.	16aaa\oyy 16rdd#X\ 16ra#X^\	.
!	!	!	!LO:N:n=2:vis=2	!
.	.	.	16bbb\oyy 16ree\ 16rb^\	.
!	!	!	!LO:N:n=2:vis=2	!
.	.	.	16cccc\oyy 16rffn\JJ 16rccn^\	.
!	!	!	!LO:N:n=2:vis=2	!
.	.	.	16cccc#\oyy 16rff#X\LL 16rcc#X^\	.
!	!	!	!LO:N:n=2:vis=2	!
.	.	.	16dddd\oyy 16rggn\ 16rddn^\	.
!	!	!	!LO:N:n=2:vis=2	!
.	.	.	16dddd#\oyy 16rgg#X\ 16rdd#X^\	.
!	!	!	!LO:N:n=2:vis=2	!
.	.	.	16eeee\oyy 16raa\JJ 16ree^\	.
!	!	!	!LO:N:n=2:vis=2	!
4EE/ 4EEE/	4ee/ 4g#/ 4d/	.	16ffff\oyy 16rbb-X\LL 16rffn^\	.
!	!	!	!LO:N:n=2:vis=2	!
.	.	.	16ffff#\oyy 16rbbn\ 16rff#X^\	.
!	!	!	!LO:N:n=2:vis=2	!
.	.	.	16gggg\oyy 16rcccn\ 16rggn^\	.
!	!	!	!LO:N:n=2:vis=2	!
!	!	!LO:MO:null:mod=[[	!	!LO:MO:null:mod=[[
.	.	.	16gggg#\oyy 16rccc#X\JJ 16rgg#X^\	.
=84	=84	=84	=84	=84
!	!	!	!LO:N:n=2:vis=2	!
8AA/ 8AAA/	8a/ 8c/	.	8aaaa\oyy 8ddd\ 8aa^\	.
8r	8r	.	8r	.
*	*8va	*	*	*
4A\ 4E\ 4C\ 4AA^^\	4aaa\ 4eee\ 4ccc\ 4aa\	ffff	4aa/ 4cc/ 4e/ 4A/	ffff
*	*X8va	*	*	*
4r;	4r;	.	4r;	.
==	==	==	==	==
*-	*-	*-	*-	*-
!!!system-decoration: s1{(s2,s3)}
!!!RDF**kern: > = above
!!!RDF**kern: < = below
!!!RDF**kern: + = l.h. pizz.
!!!filter-modern: shed -k -e "s/([^a-gA-Gn#X-])[<>]/$1/g" | shed -e "s/:rj/:RJ/L" | sic -sq | modori -m | autostem -r | tie -s
!!!ENC: Mateusz Solarz
!!!END: 2022-05-16
!!!ENC: Andrzej Borzym
!!!END: 2022-05-23
!!!ENC-modern: Andrzej Kubiczek
!!!END-modern: 2022-07-20
!!!ENC-iiif: Olaf Gawdzik
!!!END-iiif: 2022-09-02
!!!YEC: Copyright 2022 Narodowy Instytut Fryderyka Chopina (https://polishscores.org)
!!!YEM: License CC-BY-4.0 (https://creativecommons.org/licenses/by/4.0)
